svg/regular/bx-border-bottom.svg

<svg xmlns="http://www.w3.org/2000/svg" width="24" height="24"><path d="M3 7h2v2H3zm0 4h2v2H3zm0 4h2v2H3zM3 3h2v2H3zm8 0h2v2h-2zM7 3h2v2H7zm8 0h2v2h-2zm4 0h2v2h-2zm0 12h2v2h-2zm0-4h2v2h-2zm0-4h2v2h-2zm-4 4h2v2h-2zm-8 0h2v2H7zm4-4h2v2h-2zm0 8h2v2h-2zm0-4h2v2h-2zm6 8H3v2h18v-2h-2z"/></svg>

<svg xmlns="http://www.w3.org/2000/svg" width="24" height="24" viewBox="0 0 24 24"><path d="M3 7H5V9H3zM3 11H5V13H3zM3 15H5V17H3zM3 3H5V5H3zM11 3H13V5H11zM7 3H9V5H7zM15 3H17V5H15zM19 3H21V5H19zM19 15H21V17H19zM19 11H21V13H19zM19 7H21V9H19zM15 11H17V13H15zM7 11H9V13H7zM11 7H13V9H11zM11 15H13V17H11zM11 11H13V13H11zM17 19L15 19 13 19 11 19 9 19 7 19 5 19 3 19 3 21 5 21 7 21 9 21 11 21 13 21 15 21 17 21 19 21 21 21 21 19 19 19z"/></svg>
